X:1
T:Title
%%score { ( 1 4 ) | ( 2 3 5 ) }
L:1/8
M:6/4
K:Eb
V:1 treble nm="Grand Piano"
V:4 treble 
V:2 bass 
V:3 bass 
V:5 bass 
V:1
 z6 z4[Q:1/4=132] E2 | G4 F2 G4 A2 | [GB]6- [GB]4 [Ac]2 | [GB]4 G2 E2 F2 G2 | [DF]6- [DF]4 [DF]2 | %5
[M:15/8] G6 =A3- A6 |[M:7/4] [DB]2- [DB]2- [DB]2- [DB]6 [DB]2 | %7
[M:6/4] [EB]4 [Ge]2 [Ge]2 d2 [EAc]2 | [EGB]6- [EGB]4 [B,EG]2 | [DFA]4 [DAc]2 [Ac]2 B2 [B,FA]2 | %10
 [B,EG]6- [B,EG]4 [A,DF]2 | E2 G2 [GB]2 [Ge]4 [Ad]2 | [Ee]6- [Ee]4 [CFA]2 | [EG]6 [DF]6 | %14
[M:5/4] [G,E]2- [G,E]2- [G,E]6 |[M:1/4] [B,GB]2 |[M:6/4] [GB]4 [GB]2 [GB]4 [GB]2 | %17
 [Ac]4 [Ac]2 [GB]4 [GB]2 | [Ge]4 [Ge]2 [=Ae]4 [EFA]2 | B4- [GB-]2 [AB]6 |[M:1/4] [B,FA]2 | %21
[M:6/4] [B,EG]4 [B,FA]2 [B,GB]4 E2 | e4 d2 c4 [Ec]2 | .[EB]4 [EB]2 .[DA]4 D2 |[M:5/4] E2- E2- E6 |] %25
V:2
 z6 z4 [E,G,B,]2 | [E,B,E]4 [A,B,D]2 [G,B,E]4 [F,B,F]2 | [E,E]6- [E,E]4 [E,E]2 | %3
 [E,E]4 [E,B,E]2 B,2- [F,B,D]2 [E,B,E]2 | [B,,B,]6- [B,,B,]4 [B,,B,]2 | %5
[M:15/8] [E,B,E]6 [F,E]3- [F,E]6 |[M:7/4] [B,,F,]2- [B,,F,]2- [B,,F,]2- [B,,F,]6 [B,,A,]2 | %7
[M:6/4] [E,G,]4 [E,B,]2 z2[K:treble] B2[K:bass] E,2 | E,6- E,4 E,2 | B,,4 B,,2 z2 G2 B,,2 | %10
 E,6- E,4 B,,2 | [G,B,]2 [B,E]2 [E,B,]2 [E,B,]4 [F,B,]2 | [G,B,]6- [G,B,]4 A,2 | B,12 | %14
[M:5/4] E,2- E,2- E,6 |[M:1/4] E,2 |[M:6/4] [E,E]4 [E,E]2 [E,E]4 [E,E]2 | %17
 [A,E]4 [A,E]2 [E,E]4 [E,B,]2 | [C,C]4 [C,C]2 [F,C]4 F,2 | z4[K:treble] E2 F6 | %20
[M:1/4][K:bass] D,2 |[M:6/4] E,4 E,2 E,4 [E,G,]2 | [G,B,E]4 [G,B,E]2 [A,E]4 [A,,A,]2 | %23
 .[B,,G,]4 [B,,G,]2 .[B,,F,]4 [B,,A,B,]2 |[M:5/4] [E,G,B,]2- [E,G,B,]2- [E,G,B,]6 |] %25
V:3
 x12 | x12 | x12 | z6 .G,6 | x12 |[M:15/8] x15 |[M:7/4] x14 | %7
[M:6/4] z6 .[E,B,]6[K:treble][K:bass] | x12 | z6 .B,,6 | x12 | .E,6 z6 | x12 | z6 z4 A,2 | %14
[M:5/4] x10 |[M:1/4] x2 |[M:6/4] x12 | x12 | x12 | B,,12[K:treble] |[M:1/4][K:bass] x2 | %21
[M:6/4] x12 | x12 | x12 |[M:5/4] x10 |] %25
V:4
 x12 | x12 | x12 | x12 | x12 |[M:15/8] x15 |[M:7/4] x14 |[M:6/4] x12 | x12 | z6 .D6 | x12 | x12 | %12
 x12 | x12 |[M:5/4] x10 |[M:1/4] x2 |[M:6/4] x12 | x12 | x12 | .[DF]6 z6 |[M:1/4] x2 |[M:6/4] x12 | %22
 x12 | x12 |[M:5/4] x10 |] %25
V:5
 x12 | x12 | x12 | x12 | x12 |[M:15/8] x15 |[M:7/4] x14 |[M:6/4] x8[K:treble] x2[K:bass] x2 | x12 | %9
 x12 | x12 | x12 | x12 | z6 B,,6 |[M:5/4] x10 |[M:1/4] x2 |[M:6/4] x12 | x12 | x12 | %19
 x4[K:treble] x8 |[M:1/4][K:bass] x2 |[M:6/4] x12 | x12 | x12 |[M:5/4] x10 |] %25

